X:300
T: WIE SIE SO SANFT RUHN
N: B0776
O: Europa, Mitteleuropa, Deutschland
R: Trost - Lied, Tod, Begraebnis - Gesang, religioes
M: 3/4
L: 1/16
K: Bb
 | B4c4B4 | B2A2A4z4 |
c4B4A4 | A3BB4z4 |
f4e4d4 | d4c4B4 |
c4e3cd3B | d4c4z4 |
f4e4d4 | d2e2e4z4 |
e4d4c4 | c2d2d4z4 |
G4G4f4 | f4e4d2
B2 | G3cB4A4 | A2B2B4z4

@@@ Tune index: 2518
